.github/assets/header-light-mobile.svg

<svg width="714" height="165" viewBox="0 0 714 165" fill="none" xmlns="http://www.w3.org/2000/svg">
<g clip-path="url(#clip0_1715_278)">
<path d="M0 32C0 14.3269 14.3269 0 32 0H682C699.673 0 714 14.3269 714 32V165H0V32Z" fill="white"/>
<rect opacity="0.1" x="335" y="-150" width="1080" height="512" rx="256" fill="url(#paint0_radial_1715_278)"/>
<rect opacity="0.1" x="-801" y="-150" width="1180" height="512" rx="256" fill="url(#paint1_radial_1715_278)"/>
<rect opacity="0.1" x="-641" y="-195" width="2032" height="437" rx="218.5" fill="url(#paint2_radial_1715_278)" fill-opacity="0.4"/>
<rect opacity="0.1" x="42" y="-165" width="501" height="342" rx="171" fill="url(#paint3_radial_1715_278)" fill-opacity="0.4"/>
<rect x="-435" y="55" width="1584" height="157" fill="url(#paint4_linear_1715_278)"/>
<g filter="url(#filter0_dddd_1715_278)">
<rect x="303" y="40" width="108" height="109" rx="8" fill="white" fill-opacity="0.5"/>
</g>
<g filter="url(#filter1_dddd_1715_278)">
<rect x="301" y="40.2922" width="112" height="112" rx="12" fill="white" fill-opacity="0.5"/>
<rect x="300.5" y="39.7922" width="113" height="113" rx="12.5" stroke="white"/>
<g clip-path="url(#clip1_1715_278)">
<path d="M311.305 52.8631V144.291H318.974C318.974 123.274 336.028 106.239 357.061 106.239C378.097 106.239 395.148 123.278 395.148 144.291H402.817V52.8631H311.305Z" fill="white"/>
<path d="M356.974 124.634C346.105 124.634 337.297 133.434 337.297 144.291H376.647C376.651 133.438 367.843 124.634 356.974 124.634Z" fill="white"/>
<g filter="url(#filter2_d_1715_278)">
<rect x="309.008" y="48.2922" width="95.9888" height="95.9992" rx="4" fill="white"/>
</g>
<path fill-rule="evenodd" clip-rule="evenodd" d="M309 52.2924C309 50.0832 310.791 48.2924 313 48.2924H400.989C403.198 48.2924 404.989 50.0832 404.989 52.2924V140.292C404.989 142.501 403.198 144.292 400.989 144.292H396.945C396.945 122.228 379.06 104.337 356.994 104.337C334.933 104.337 317.044 122.223 317.044 144.292H313C310.791 144.292 309 142.501 309 140.292V52.2924ZM336.263 144.292C336.263 132.892 345.502 123.653 356.902 123.653C368.303 123.653 377.542 132.896 377.538 144.292H336.263Z" fill="url(#paint5_linear_1715_278)"/>
</g>
</g>
<rect x="-435" y="149" width="1584" height="16" fill="url(#paint6_linear_1715_278)"/>
<rect x="157" width="138" height="157" transform="rotate(90 157 0)" fill="url(#paint7_linear_1715_278)"/>
<rect x="557" y="138" width="138" height="157" transform="rotate(-90 557 138)" fill="url(#paint8_linear_1715_278)"/>
</g>
<defs>
<filter id="filter0_dddd_1715_278" x="301" y="16" width="180" height="149" filterUnits="userSpaceOnUse" color-interpolation-filters="sRGB">
<feFlood flood-opacity="0" result="BackgroundImageFix"/>
<feColorMatrix in="SourceAlpha" type="matrix" values="0 0 0 0 0 0 0 0 0 0 0 0 0 0 0 0 0 0 127 0" result="hardAlpha"/>
<feOffset dx="5"/>
<feGaussianBlur stdDeviation="3.5"/>
<feColorMatrix type="matrix" values="0 0 0 0 0.92549 0 0 0 0 0.972549 0 0 0 0 0.980392 0 0 0 0.1 0"/>
<feBlend mode="normal" in2="BackgroundImageFix" result="effect1_dropShadow_1715_278"/>
<feColorMatrix in="SourceAlpha" type="matrix" values="0 0 0 0 0 0 0 0 0 0 0 0 0 0 0 0 0 0 127 0" result="hardAlpha"/>
<feOffset dx="13" dy="-1"/>
<feGaussianBlur stdDeviation="6.5"/>
<feColorMatrix type="matrix" values="0 0 0 0 0.92549 0 0 0 0 0.972549 0 0 0 0 0.980392 0 0 0 0.09 0"/>
<feBlend mode="normal" in2="effect1_dropShadow_1715_278" result="effect2_dropShadow_1715_278"/>
<feColorMatrix in="SourceAlpha" type="matrix" values="0 0 0 0 0 0 0 0 0 0 0 0 0 0 0 0 0 0 127 0" result="hardAlpha"/>
<feOffset dx="28" dy="-2"/>
<feGaussianBlur stdDeviation="8.5"/>
<feColorMatrix type="matrix" values="0 0 0 0 0.92549 0 0 0 0 0.972549 0 0 0 0 0.980392 0 0 0 0.05 0"/>
<feBlend mode="normal" in2="effect2_dropShadow_1715_278" result="effect3_dropShadow_1715_278"/>
<feColorMatrix in="SourceAlpha" type="matrix" values="0 0 0 0 0 0 0 0 0 0 0 0 0 0 0 0 0 0 127 0" result="hardAlpha"/>
<feOffset dx="50" dy="-4"/>
<feGaussianBlur stdDeviation="10"/>
<feColorMatrix type="matrix" values="0 0 0 0 0.92549 0 0 0 0 0.972549 0 0 0 0 0.980392 0 0 0 0.01 0"/>
<feBlend mode="normal" in2="effect3_dropShadow_1715_278" result="effect4_dropShadow_1715_278"/>
<feBlend mode="normal" in="SourceGraphic" in2="effect4_dropShadow_1715_278" result="shape"/>
</filter>
<filter id="filter1_dddd_1715_278" x="230" y="15.2922" width="188" height="154" filterUnits="userSpaceOnUse" color-interpolation-filters="sRGB">
<feFlood flood-opacity="0" result="BackgroundImageFix"/>
<feColorMatrix in="SourceAlpha" type="matrix" values="0 0 0 0 0 0 0 0 0 0 0 0 0 0 0 0 0 0 127 0" result="hardAlpha"/>
<feOffset dx="-3"/>
<feGaussianBlur stdDeviation="3.5"/>
<feColorMatrix type="matrix" values="0 0 0 0 0.854902 0 0 0 0 0.823529 0 0 0 0 0.913725 0 0 0 0.1 0"/>
<feBlend mode="normal" in2="BackgroundImageFix" result="effect1_dropShadow_1715_278"/>
<feColorMatrix in="SourceAlpha" type="matrix" values="0 0 0 0 0 0 0 0 0 0 0 0 0 0 0 0 0 0 127 0" result="hardAlpha"/>
<feOffset dx="-13" dy="-1"/>
<feGaussianBlur stdDeviation="6.5"/>
<feColorMatrix type="matrix" values="0 0 0 0 0.854902 0 0 0 0 0.823529 0 0 0 0 0.913725 0 0 0 0.09 0"/>
<feBlend mode="normal" in2="effect1_dropShadow_1715_278" result="effect2_dropShadow_1715_278"/>
<feColorMatrix in="SourceAlpha" type="matrix" values="0 0 0 0 0 0 0 0 0 0 0 0 0 0 0 0 0 0 127 0" result="hardAlpha"/>
<feOffset dx="-28" dy="-2"/>
<feGaussianBlur stdDeviation="8.5"/>
<feColorMatrix type="matrix" values="0 0 0 0 0.854902 0 0 0 0 0.823529 0 0 0 0 0.913725 0 0 0 0.05 0"/>
<feBlend mode="normal" in2="effect2_dropShadow_1715_278" result="effect3_dropShadow_1715_278"/>
<feColorMatrix in="SourceAlpha" type="matrix" values="0 0 0 0 0 0 0 0 0 0 0 0 0 0 0 0 0 0 127 0" result="hardAlpha"/>
<feOffset dx="-50" dy="-4"/>
<feGaussianBlur stdDeviation="10"/>
<feColorMatrix type="matrix" values="0 0 0 0 0.854902 0 0 0 0 0.823529 0 0 0 0 0.913725 0 0 0 0.01 0"/>
<feBlend mode="normal" in2="effect3_dropShadow_1715_278" result="effect4_dropShadow_1715_278"/>
<feBlend mode="normal" in="SourceGraphic" in2="effect4_dropShadow_1715_278" result="shape"/>
</filter>
<filter id="filter2_d_1715_278" x="277.392" y="16.676" width="159.221" height="159.232" filterUnits="userSpaceOnUse" color-interpolation-filters="sRGB">
<feFlood flood-opacity="0" result="BackgroundImageFix"/>
<feColorMatrix in="SourceAlpha" type="matrix" values="0 0 0 0 0 0 0 0 0 0 0 0 0 0 0 0 0 0 127 0" result="hardAlpha"/>
<feMorphology radius="24.3" operator="erode" in="SourceAlpha" result="effect1_dropShadow_1715_278"/>
<feOffset/>
<feGaussianBlur stdDeviation="27.9581"/>
<feComposite in2="hardAlpha" operator="out"/>
<feColorMatrix type="matrix" values="0 0 0 0 0.259053 0 0 0 0 0.926709 0 0 0 0 0.52709 0 0 0 0.4 0"/>
<feBlend mode="normal" in2="BackgroundImageFix" result="effect1_dropShadow_1715_278"/>
<feBlend mode="normal" in="SourceGraphic" in2="effect1_dropShadow_1715_278" result="shape"/>
</filter>
<radialGradient id="paint0_radial_1715_278" cx="0" cy="0" r="1" gradientUnits="userSpaceOnUse" gradientTransform="translate(875 106) rotate(-180) scale(540 256)">
<stop stop-color="#2DD4BF"/>
<stop offset="1" stop-color="#2DD4BF" stop-opacity="0"/>
</radialGradient>
<radialGradient id="paint1_radial_1715_278" cx="0" cy="0" r="1" gradientUnits="userSpaceOnUse" gradientTransform="translate(-211 106) rotate(-180) scale(590 256)">
<stop stop-color="#9065F5"/>
<stop offset="1" stop-color="#9065F5" stop-opacity="0"/>
</radialGradient>
<radialGradient id="paint2_radial_1715_278" cx="0" cy="0" r="1" gradientUnits="userSpaceOnUse" gradientTransform="translate(375 23.5) rotate(1.59397) scale(1016.39 222.072)">
<stop stop-color="#9065F5"/>
<stop offset="0.998016" stop-color="#9065F5" stop-opacity="0"/>
</radialGradient>
<radialGradient id="paint3_radial_1715_278" cx="0" cy="0" r="1" gradientUnits="userSpaceOnUse" gradientTransform="translate(292.5 6) rotate(5.04773) scale(251.475 173.189)">
<stop stop-color="#9065F5"/>
<stop offset="0.998016" stop-color="#9065F5" stop-opacity="0"/>
</radialGradient>
<linearGradient id="paint4_linear_1715_278" x1="357" y1="212" x2="357" y2="55" gradientUnits="userSpaceOnUse">
<stop stop-color="white"/>
<stop offset="1" stop-color="white" stop-opacity="0"/>
</linearGradient>
<linearGradient id="paint5_linear_1715_278" x1="356.994" y1="48.2924" x2="356.994" y2="144.292" gradientUnits="userSpaceOnUse">
<stop stop-color="#4DD684"/>
<stop offset="1" stop-color="#3FCC78"/>
</linearGradient>
<linearGradient id="paint6_linear_1715_278" x1="357" y1="165" x2="357" y2="149" gradientUnits="userSpaceOnUse">
<stop stop-color="white"/>
<stop offset="1" stop-color="white" stop-opacity="0"/>
</linearGradient>
<linearGradient id="paint7_linear_1715_278" x1="226" y1="157" x2="226" y2="0" gradientUnits="userSpaceOnUse">
<stop stop-color="white"/>
<stop offset="1" stop-color="white" stop-opacity="0"/>
</linearGradient>
<linearGradient id="paint8_linear_1715_278" x1="626" y1="295" x2="626" y2="138" gradientUnits="userSpaceOnUse">
<stop stop-color="white"/>
<stop offset="1" stop-color="white" stop-opacity="0"/>
</linearGradient>
<clipPath id="clip0_1715_278">
<path d="M0 32C0 14.3269 14.3269 0 32 0H682C699.673 0 714 14.3269 714 32V165H0V32Z" fill="white"/>
</clipPath>
<clipPath id="clip1_1715_278">
<rect x="309" y="48.2922" width="96" height="96" rx="8" fill="white"/>
</clipPath>
</defs>
</svg>

<svg width="714" height="165" fill="none" xmlns="http://www.w3.org/2000/svg"><g clip-path="url(#a)"><mask id="c" style="mask-type:alpha" maskUnits="userSpaceOnUse" x="0" y="-1" width="714" height="166"><path transform="rotate(-90 0 165)" fill="url(#b)" d="M0 165h165v714H0z"/></mask><g mask="url(#c)"><mask id="e" style="mask-type:alpha" maskUnits="userSpaceOnUse" x="0" y="-1" width="714" height="166"><path transform="rotate(90 714 0)" fill="url(#d)" d="M714 0h165v714H714z"/></mask><g mask="url(#e)"><mask id="g" style="mask-type:alpha" maskUnits="userSpaceOnUse" x="-435" y="-1" width="1584" height="213"><path fill="url(#f)" d="M-435 0h1584v212H-435z"/></mask><g mask="url(#g)"><path fill="#fff" d="M-435 0h1584v250H-435z"/><rect opacity=".1" x="335" y="-150" width="1080" height="512" rx="256" fill="url(#h)"/><rect opacity=".1" x="-801" y="-150" width="1180" height="512" rx="256" fill="url(#i)"/><rect opacity=".1" x="-641" y="-195" width="2032" height="437" rx="218.5" fill="url(#j)" fill-opacity=".4"/><rect opacity=".1" x="42" y="-165" width="501" height="342" rx="171" fill="url(#k)" fill-opacity=".4"/></g></g></g><g filter="url(#l)"><rect x="302" y="40" width="110" height="112" rx="8" fill="#fff" fill-opacity=".5"/></g><g filter="url(#m)"><rect x="301" y="40.292" width="112" height="112" rx="12" fill="#fff" fill-opacity=".5"/><rect x="300.5" y="39.792" width="113" height="113" rx="12.5" stroke="#fff"/><g clip-path="url(#n)"><path d="M311.305 52.863v91.428h7.669c0-21.017 17.054-38.052 38.087-38.052 21.036 0 38.087 17.039 38.087 38.052h7.669V52.863h-91.512Z" fill="#fff"/><path d="M356.974 124.634c-10.869 0-19.677 8.8-19.677 19.657h39.35c.004-10.853-8.804-19.657-19.673-19.657Z" fill="#fff"/><g filter="url(#o)"><rect x="309.008" y="48.292" width="95.989" height="95.999" rx="4" fill="#fff"/></g><path fill-rule="evenodd" clip-rule="evenodd" d="M309 52.292a4 4 0 0 1 4-4h87.989a4 4 0 0 1 4 4v88a4 4 0 0 1-4 4h-4.044c0-22.064-17.885-39.955-39.951-39.955-22.061 0-39.95 17.886-39.95 39.955H313a4 4 0 0 1-4-4v-88Zm27.263 92c0-11.4 9.239-20.639 20.639-20.639 11.401 0 20.64 9.243 20.636 20.639h-41.275Z" fill="url(#p)"/></g></g></g><defs><radialGradient id="h" cx="0" cy="0" r="1" gradientUnits="userSpaceOnUse" gradientTransform="matrix(-540 0 0 -256 875 106)"><stop stop-color="#2DD4BF"/><stop offset="1" stop-color="#2DD4BF" stop-opacity="0"/></radialGradient><radialGradient id="i" cx="0" cy="0" r="1" gradientUnits="userSpaceOnUse" gradientTransform="matrix(-590 0 0 -256 -211 106)"><stop stop-color="#9065F5"/><stop offset="1" stop-color="#9065F5" stop-opacity="0"/></radialGradient><radialGradient id="j" cx="0" cy="0" r="1" gradientUnits="userSpaceOnUse" gradientTransform="rotate(1.594 -657.16 13490.38) scale(1016.39 222.072)"><stop stop-color="#9065F5"/><stop offset=".998" stop-color="#9065F5" stop-opacity="0"/></radialGradient><radialGradient id="k" cx="0" cy="0" r="1" gradientUnits="userSpaceOnUse" gradientTransform="matrix(250.49972 22.12618 -15.23814 172.51733 292.5 6)"><stop stop-color="#9065F5"/><stop offset=".998" stop-color="#9065F5" stop-opacity="0"/></radialGradient><linearGradient id="b" x1="83" y1="165" x2="83" y2="879" gradientUnits="userSpaceOnUse"><stop offset=".873" stop-color="#fff"/><stop offset="1" stop-color="#fff" stop-opacity="0"/></linearGradient><linearGradient id="d" x1="796" y1="0" x2="796" y2="714" gradientUnits="userSpaceOnUse"><stop offset=".874" stop-color="#fff"/><stop offset="1" stop-color="#fff" stop-opacity="0"/></linearGradient><linearGradient id="f" x1="357" y1="0" x2="357" y2="140" gradientUnits="userSpaceOnUse"><stop offset=".387" stop-color="#fff"/><stop offset="1" stop-color="#fff" stop-opacity="0"/></linearGradient><linearGradient id="p" x1="356.994" y1="48.292" x2="356.994" y2="144.292" gradientUnits="userSpaceOnUse"><stop stop-color="#4DD684"/><stop offset="1" stop-color="#3FCC78"/></linearGradient><filter id="l" x="300" y="16" width="182" height="152" filterUnits="userSpaceOnUse" color-interpolation-filters="sRGB"><feFlood flood-opacity="0" result="BackgroundImageFix"/><feColorMatrix in="SourceAlpha" values="0 0 0 0 0 0 0 0 0 0 0 0 0 0 0 0 0 0 127 0" result="hardAlpha"/><feOffset dx="5"/><feGaussianBlur stdDeviation="3.5"/><feColorMatrix values="0 0 0 0 0.92549 0 0 0 0 0.972549 0 0 0 0 0.980392 0 0 0 0.1 0"/><feBlend in2="BackgroundImageFix" result="effect1_dropShadow_1722_311"/><feColorMatrix in="SourceAlpha" values="0 0 0 0 0 0 0 0 0 0 0 0 0 0 0 0 0 0 127 0" result="hardAlpha"/><feOffset dx="13" dy="-1"/><feGaussianBlur stdDeviation="6.5"/><feColorMatrix values="0 0 0 0 0.92549 0 0 0 0 0.972549 0 0 0 0 0.980392 0 0 0 0.09 0"/><feBlend in2="effect1_dropShadow_1722_311" result="effect2_dropShadow_1722_311"/><feColorMatrix in="SourceAlpha" values="0 0 0 0 0 0 0 0 0 0 0 0 0 0 0 0 0 0 127 0" result="hardAlpha"/><feOffset dx="28" dy="-2"/><feGaussianBlur stdDeviation="8.5"/><feColorMatrix values="0 0 0 0 0.92549 0 0 0 0 0.972549 0 0 0 0 0.980392 0 0 0 0.05 0"/><feBlend in2="effect2_dropShadow_1722_311" result="effect3_dropShadow_1722_311"/><feColorMatrix in="SourceAlpha" values="0 0 0 0 0 0 0 0 0 0 0 0 0 0 0 0 0 0 127 0" result="hardAlpha"/><feOffset dx="50" dy="-4"/><feGaussianBlur stdDeviation="10"/><feColorMatrix values="0 0 0 0 0.92549 0 0 0 0 0.972549 0 0 0 0 0.980392 0 0 0 0.01 0"/><feBlend in2="effect3_dropShadow_1722_311" result="effect4_dropShadow_1722_311"/><feBlend in="SourceGraphic" in2="effect4_dropShadow_1722_311" result="shape"/></filter><filter id="m" x="230" y="15.292" width="188" height="154" filterUnits="userSpaceOnUse" color-interpolation-filters="sRGB"><feFlood flood-opacity="0" result="BackgroundImageFix"/><feColorMatrix in="SourceAlpha" values="0 0 0 0 0 0 0 0 0 0 0 0 0 0 0 0 0 0 127 0" result="hardAlpha"/><feOffset dx="-3"/><feGaussianBlur stdDeviation="3.5"/><feColorMatrix values="0 0 0 0 0.854902 0 0 0 0 0.823529 0 0 0 0 0.913725 0 0 0 0.1 0"/><feBlend in2="BackgroundImageFix" result="effect1_dropShadow_1722_311"/><feColorMatrix in="SourceAlpha" values="0 0 0 0 0 0 0 0 0 0 0 0 0 0 0 0 0 0 127 0" result="hardAlpha"/><feOffset dx="-13" dy="-1"/><feGaussianBlur stdDeviation="6.5"/><feColorMatrix values="0 0 0 0 0.854902 0 0 0 0 0.823529 0 0 0 0 0.913725 0 0 0 0.09 0"/><feBlend in2="effect1_dropShadow_1722_311" result="effect2_dropShadow_1722_311"/><feColorMatrix in="SourceAlpha" values="0 0 0 0 0 0 0 0 0 0 0 0 0 0 0 0 0 0 127 0" result="hardAlpha"/><feOffset dx="-28" dy="-2"/><feGaussianBlur stdDeviation="8.5"/><feColorMatrix values="0 0 0 0 0.854902 0 0 0 0 0.823529 0 0 0 0 0.913725 0 0 0 0.05 0"/><feBlend in2="effect2_dropShadow_1722_311" result="effect3_dropShadow_1722_311"/><feColorMatrix in="SourceAlpha" values="0 0 0 0 0 0 0 0 0 0 0 0 0 0 0 0 0 0 127 0" result="hardAlpha"/><feOffset dx="-50" dy="-4"/><feGaussianBlur stdDeviation="10"/><feColorMatrix values="0 0 0 0 0.854902 0 0 0 0 0.823529 0 0 0 0 0.913725 0 0 0 0.01 0"/><feBlend in2="effect3_dropShadow_1722_311" result="effect4_dropShadow_1722_311"/><feBlend in="SourceGraphic" in2="effect4_dropShadow_1722_311" result="shape"/></filter><filter id="o" x="277.392" y="16.676" width="159.221" height="159.232" filterUnits="userSpaceOnUse" color-interpolation-filters="sRGB"><feFlood flood-opacity="0" result="BackgroundImageFix"/><feColorMatrix in="SourceAlpha" values="0 0 0 0 0 0 0 0 0 0 0 0 0 0 0 0 0 0 127 0" result="hardAlpha"/><feMorphology radius="24.3" in="SourceAlpha" result="effect1_dropShadow_1722_311"/><feOffset/><feGaussianBlur stdDeviation="27.958"/><feComposite in2="hardAlpha" operator="out"/><feColorMatrix values="0 0 0 0 0.259053 0 0 0 0 0.926709 0 0 0 0 0.52709 0 0 0 0.4 0"/><feBlend in2="BackgroundImageFix" result="effect1_dropShadow_1722_311"/><feBlend in="SourceGraphic" in2="effect1_dropShadow_1722_311" result="shape"/></filter><clipPath id="a"><path d="M0 32C0 14.327 14.327 0 32 0h650c17.673 0 32 14.327 32 32v133H0V32Z" fill="#fff"/></clipPath><clipPath id="n"><rect x="309" y="48.292" width="96" height="96" rx="8" fill="#fff"/></clipPath></defs></svg>
